X: 71
T: No_74_Corn-grinding_Song_(a).krn
N: Derived from No_74_Corn-grinding_Song_(a).krn
%%abc-version 2.0
%%abcx-abcm2ps-target-version 5.9.1 (29 Sep 2008)
%%abc-creator hum2abc beta
%%abcx-conversion-date 2019/03/15 08:25:36
%%humdrum-veritas 1646002234
%%humdrum-veritas-data 3821550770
%%linebreak <none>
%%barnumbers 0
L: 1/16
M: 3/4
K: Ab clef=bass
[K:clef=bass][M:3/4]A,8-A,3E, [I:setbarnb 2]| 
[M:2/4]F,2F,2E,4- | 
E,4z4 | 
F,3A, F,E,3 | 
E,6C,2 | 
[M:3/4]E,2E,2C,4-C,2E,2 | 
[M:2/4]C,2C,2 C,2C, z | 
[M:3/4]C,2C,2 C,2C, zz4 :|]  
[M:3/4]C,2C,2 C,2C, z z3 G, ]|:  
[M:2/4]C3D C3D | 
C2B,2A,4 | 
B,B,C2 B,2 (3A,F,A, | 
[M:3/4]F,3E, C,2 (3E,C,C, E,2 z2 | 
[M:2/4]F,3E, C,2 (3E,C,C, | 
[M:5/8]F,3/G,/F,G,E,2 (3F,C,C, C,3/F,/ | 
[M:2/4]E,C,C,2 C,2C, z | 
[M:3/4]E,C,C,2 C,2C, z z3 G, :|]  
[M:3/4]C,C,C,2 C,2C, z z3 C, [I:setbarnb 19]| 
F,3E, C,2 (3E,C,C,E,4 | 
[M:2/4]F,3E, C,2E,C, | 
[M:5/8]F,3/G,/F,G,E,2 (3F,C,C, C,3/F,/ | 
[M:2/4]E,C,C,2 C,2C, z | 
[M:3/4]E,2C,C, C,2C,2z4 | 
[M:2/4]E,2E,2 E,2E,2 | 
[M:3/4]E,2E,2 E,2E,2z4 | 
[M:2/4]E,C,C,2 C,2C,2 | 
[M:3/4]E,E,C,2 C,2C,2z4 | 
[M:2/4]E,C,C,C, C,2C, z | 
E,C,C,C, C,2C, z |]  



